X:11134
T:Montez-y - bourree
C:J. C. Blanc
N:abc transcription Simon Wascher
N:if you find an error in this transcription please inform simon.wascher@chello.at
M:3/8
L:1/16
K:G
g2f2e2|d2c2B2|cBAcBA|BAGDGB|
g2f2e2|d2c2B2|cBAcBA|G6:|
|:BAGBAG|AGFDFA|cAFDEF|GFGAB2|
BAGBAG|AGFDFA|cAFDEF|G6:|
